X:1
T:All mein Gedanken, die ich hab
T:Johannes Brahms
T:All mein Gedanken, die ich hab
T:CPDL - Creative Commons Attribution Non Commercial 3.0
T:CPDL - Creative Commons Attribution Non Commercial 3.0
C:Johannes Brahms
Z:CPDL - Creative Commons Attribution Non Commercial 3.0
%%score [ 1 2 3 4 ]
L:1/8
Q:1/4=120
M:4/4
K:G
V:1 treble nm="S"
V:2 treble nm="A"
V:3 treble-8 nm="T"
V:4 bass nm="B"
V:1
!p!"^Mäßig, nicht zu langsam, etwas frei vorzutragen\nMit Ausdruck" G2 |!<(! G2 G2 B2 B2!<)! | %2
w: 1.~All|mein Ge- dan- ken,|
w: 2.~Du|aus- er- wähl- ter|
w: 3.~Die|Al- ler- liebst und|
 e2 e2 d2 d2 |!>(! B2 A2 G4-!>)! | G2 z2 z2 G2 |!<(! G2 G2 B2 B2!<)! | e2 e2 d2 d2 | %7
w: die ich hab, die|sind bei dir,|_ du|aus- er- wähl- ter|ein'- ger Trost, bleib|
w: ein´- ger Trost, ge-|denk dar- an,|_ mein|Leib und Gut, das|sollst du ganz zu|
w: Min- nig- lich, die|ist so zart,|_ und|ih- res- gleich in|al- len Reich, findt|
!p!!>(! B2 A2 !breath!G4!>)! |!mp! F4 G3 G |!p!!<(! B2 B2 A2 A2!<)! |!>(! E4 D4!>)! | %11
w: stet bei mir.|Du, du, du|sollst an mich ge-|den- ken,|
w: ei- gen han.|Dein, dein, dein|will ich all- zeit|blei- ben,|
w: man wohl hart.|Bei ihr, bei|ihr ist kein Ver-|lan- gen.|
 B2 A2!<(! B2 c2 | d2!<)! e2 d2 c2 | B2!<(! G2 F2 E2!<)! | (B4!>(! A4)!>)! | G4 z2 |] %16
w: hätt ich al- ler|Wünsch Ge- walt, von|dir wollt´ ich nicht|wan- *|ken.|
w: du gibst Freud und|ho- hen Mut und|kannst mir Leid ver-|trei- *|ben.|
w: Nun ich von ihr|schei- den soll, da|hält sie mich um-|fan- *|gen.|
V:2
 B,2 | B,2 B,2 E2 E2 | E2 G2 G2 F2 | F2 F2 G4- | G2 z2 z2 B,2 | B,2 B,2 D2 D2 | C2 G2 G2 G2 | %7
w: |||||||
w: |||||||
w: |||||||
 F2 F2 !breath!D4 | ^D4 E3 E | G2 G2 F2 D2 | ^C4 D4 | z4 B2 A2 | B2 c2 B2 c2 | G2 E2 B,2 E2 | %14
w: ||||hätt ich|al- ler Wünsch Ge-|walt, von dir wollt´|
w: ||||du gibst|Freud und ho- hen|Mut und kannst mir|
w: ||||Nun ich|von ihr schei- den|soll, da hält sie|
 E2 E2 F4 | D4 z2 |] %16
w: ich nicht wan-|ken.|
w: Leid ver- trei-|ben.|
w: mich um- fan-|gen.|
V:3
 G2 | G2 G2 G2 G2 | G2 A2 A2 B2 | B2 c2 B2 z B | B2 c2 d2 B2 | G4 F4 | (E2 c2) B4 | %7
w: 1.~All|mein Ge- dan- ken,|die ich hab, die|sind bei dir, du|aus- er- wähl- ter|ein´- ger|Trost, _ bleib|
w: 2.~Du|aus- er- wähl- ter|ein´- ger Trost, ge-|denk dar- an, mein|Leib und Gut, das|sollst du|ganz _ zu|
w: 3.~Die|Al- ler- liebst und|Min- nig- lich, die|ist so zart, und|ih- res- gleich in|al- len|Reich, _ findt|
 dc c2 !breath!B4 | B4 B3 B | d2 d2 d2 A2 | (A2 G2) F4 | GB c2 d2 e2 | d2 c2 =f2 e2 | e2 B2 G2 G2 | %14
w: stet * bei mir.|Du, du, du|sollst an mich ge-|den- * ken,|hätt _ ich al- ler|Wünsch Ge- walt, von|dir wollt´ ich nicht|
w: ei- * gen han.|Dein, dein, dein|will ich all- zeit|blei- * ben,|du _ gibst Freud und|ho- hen Mut und|kannst mir Leid ver-|
w: man * wohl hart.|Bei ihr, bei|ihr ist kein Ver-|lan- * gen.|Nun _ ich von ihr|schei- den soll, da|hält sie mich um-|
 (G4 c4) | B4 z2 |] %16
w: wan- *|ken.|
w: trei- *|ben.|
w: fan- *|gen.|
V:4
 G,2 | G,2 G,2 E,2 E,2 | C,2 C,2 D,2 D,2 | D,2 D,2 G,2 z G, | G,2 A,2 B,2 G,2 | E,4 B,,4 | %6
w: ||||||
 C,4 G,4 | D,2 D,2 !breath!G,4 | B,4 E,3 E, | E,2 E,2 F,2 F,2 | A,,4 D,4 | z4 G,2 G,2 | %12
w: |||||hätt ich|
 G,2 G,2 G,2 C,2 | ^C,3 C, C,2 C,2 | D,2 D,2 D,4 | G,4 z2 |] %16
w: al- ler Wünsch Ge-|walt, von dir wollt´|ich nicht wan-|ken.|

